X:62
T:La Bastringue
C:Traditional - French Canadian
M:4/4
L:1/8
Q:1/8=460
K:D
|:f2ff f2gf|e2c2 d2d2|cBcd e2c2|dcde f2c2|
f2ff f2gf|e2c2 d2ef|g2f2 e2ed|cABc d4:|
|:3 defg afdB|=cde=f gece|defg afdf|geag fdd2|
defg afdB|=cde=f gece|defg a3g|fdeg fdd2:|
